img/svg/icon-tg.svg

<svg width="20" height="20" viewBox="0 0 20 20" fill="none" xmlns="http://www.w3.org/2000/svg">
<path d="M18.6643 4.02291L16.0343 16.4259C15.8359 17.3013 15.3184 17.519 14.5831 17.1068L10.5759 14.1538L8.64242 16.0135C8.42848 16.2274 8.24945 16.4065 7.83707 16.4065L8.12496 12.3253L15.5519 5.61413C15.8748 5.32623 15.4819 5.1667 15.05 5.45463L5.86848 11.2359L1.91574 9.99874C1.05594 9.73026 1.04043 9.13889 2.09469 8.72655L17.5554 2.77022C18.2712 2.50178 18.8976 2.92967 18.6643 4.02291Z" stroke="#282828" stroke-width="1.4" stroke-miterlimit="10" stroke-linecap="round" stroke-linejoin="round"/>
</svg>

<svg width="20" height="20" fill="none" xmlns="http://www.w3.org/2000/svg"><path d="m18.664 4.023-2.63 12.403c-.198.875-.716 1.093-1.45.68l-4.008-2.952-1.934 1.86c-.214.213-.393.393-.805.393l.288-4.082 7.427-6.71c.323-.289-.07-.448-.502-.16l-9.182 5.78L1.916 10c-.86-.269-.876-.86.179-1.272l15.46-5.957c.716-.268 1.343.16 1.11 1.253Z" stroke="#282828" stroke-width="1.4" stroke-miterlimit="10" stroke-linecap="round" stroke-linejoin="round"/></svg>
